bridge_ui/src/icons/wormhole-network.svg

<svg data-name="Layer 1" xmlns="http://www.w3.org/2000/svg" viewBox="0 0 73.18 86.09"><path d="M30.29 43.05A47.76 47.76 0 0 0 16.72 9.63a1.7 1.7 0 0 0-1.2-.5H4.34a1.67 1.67 0 0 0-1.67 1.67v11.49A1.69 1.69 0 0 0 4.24 24a19.15 19.15 0 0 1 0 38.18 1.68 1.68 0 0 0-1.57 1.62v11.49A1.68 1.68 0 0 0 4.34 77h11.18a1.66 1.66 0 0 0 1.2-.51 47.75 47.75 0 0 0 13.57-33.44Z" style="fill:red"/><path d="M70.51 63.8a1.68 1.68 0 0 0-1.57-1.66 19.15 19.15 0 0 1 0-38.18 1.69 1.69 0 0 0 1.57-1.67V10.8a1.67 1.67 0 0 0-1.67-1.67H57.66a1.7 1.7 0 0 0-1.2.5 47.93 47.93 0 0 0 0 66.83 1.66 1.66 0 0 0 1.2.51h11.18a1.68 1.68 0 0 0 1.67-1.68Z" style="fill:#0073ff"/><path d="M28.06 3.14a1.89 1.89 0 0 0-1.75 2.58 102.89 102.89 0 0 1 7.05 37.33 102.87 102.87 0 0 1-7 37.32 1.89 1.89 0 0 0 1.7 2.63h17a1.88 1.88 0 0 0 1.74-2.58 102.33 102.33 0 0 1 0-74.65 1.88 1.88 0 0 0-1.74-2.58Z" style="fill:#00f3d7"/></svg>

<svg id="Layer_1" data-name="Layer 1" xmlns="http://www.w3.org/2000/svg" viewBox="0 0 73.18 86.09">
<defs>
    <style>.cls-1{fill:red;}.cls-2{fill:#0073ff;}.cls-3{fill:#00f3d7;}</style>
</defs>
    <path class="cls-1" d="M30.29,43.05A47.76,47.76,0,0,0,16.72,9.63a1.7,1.7,0,0,0-1.2-.5H4.34A1.67,1.67,0,0,0,2.67,10.8V22.29A1.69,1.69,0,0,0,4.24,24a19.15,19.15,0,0,1,0,38.18A1.68,1.68,0,0,0,2.67,63.8V75.29A1.68,1.68,0,0,0,4.34,77H15.52a1.66,1.66,0,0,0,1.2-.51A47.75,47.75,0,0,0,30.29,43.05Z"/>
    <path class="cls-2" d="M70.51,63.8a1.68,1.68,0,0,0-1.57-1.66,19.15,19.15,0,0,1,0-38.18,1.69,1.69,0,0,0,1.57-1.67V10.8a1.67,1.67,0,0,0-1.67-1.67H57.66a1.7,1.7,0,0,0-1.2.5,47.93,47.93,0,0,0,0,66.83,1.66,1.66,0,0,0,1.2.51H68.84a1.68,1.68,0,0,0,1.67-1.68Z"/>
    <path class="cls-3" d="M28.06,3.14a1.89,1.89,0,0,0-1.75,2.58,102.89,102.89,0,0,1,7.05,37.33,102.87,102.87,0,0,1-7,37.32A1.89,1.89,0,0,0,28.06,83h17a1.88,1.88,0,0,0,1.74-2.58,102.33,102.33,0,0,1,0-74.65,1.88,1.88,0,0,0-1.74-2.58Z"/>
</svg>
